Numix-Circle/48x48/apps/steam_icon_65980.svg

<?xml version="1.0" encoding="UTF-8" standalone="no"?>
<svg
   xmlns:dc="http://purl.org/dc/elements/1.1/"
   xmlns:cc="http://creativecommons.org/ns#"
   xmlns:rdf="http://www.w3.org/1999/02/22-rdf-syntax-ns#"
   xmlns:svg="http://www.w3.org/2000/svg"
   xmlns="http://www.w3.org/2000/svg"
   xmlns:sodipodi="http://sodipodi.sourceforge.net/DTD/sodipodi-0.dtd"
   xmlns:inkscape="http://www.inkscape.org/namespaces/inkscape"
   viewBox="0 0 48 48"
   id="svg2"
   version="1.1"
   inkscape:version="0.48.5 r10040"
   width="100%"
   height="100%"
   sodipodi:docname="steam_icon_65980.svg">
  <metadata
     id="metadata65">
    <rdf:RDF>
      <cc:Work
         rdf:about="">
        <dc:format>image/svg+xml</dc:format>
        <dc:type
           rdf:resource="http://purl.org/dc/dcmitype/StillImage" />
      </cc:Work>
    </rdf:RDF>
  </metadata>
  <sodipodi:namedview
     pagecolor="#ffffff"
     bordercolor="#666666"
     borderopacity="1"
     objecttolerance="10"
     gridtolerance="10"
     guidetolerance="10"
     inkscape:pageopacity="0"
     inkscape:pageshadow="2"
     inkscape:window-width="1280"
     inkscape:window-height="998"
     id="namedview63"
     showgrid="true"
     inkscape:zoom="8"
     inkscape:cx="16.827911"
     inkscape:cy="16.555005"
     inkscape:window-x="0"
     inkscape:window-y="0"
     inkscape:window-maximized="1"
     inkscape:current-layer="svg2">
    <inkscape:grid
       type="xygrid"
       id="grid3053" />
  </sodipodi:namedview>
  <defs
     id="defs4">
    <linearGradient
       id="linearGradient3764"
       x1="1"
       x2="47"
       gradientUnits="userSpaceOnUse"
       gradientTransform="matrix(0,-1,1,0,-1.5e-6,47.999998)">
      <stop
         stop-color="#e4e4e4"
         stop-opacity="1"
         id="stop7" />
      <stop
         offset="1"
         stop-color="#eee"
         stop-opacity="1"
         id="stop9" />
    </linearGradient>
    <clipPath
       id="clipPath-211521953">
      <g
         transform="translate(0,-1004.3622)"
         id="g12">
        <path
           d="m -24 13 c 0 1.105 -0.672 2 -1.5 2 -0.828 0 -1.5 -0.895 -1.5 -2 0 -1.105 0.672 -2 1.5 -2 0.828 0 1.5 0.895 1.5 2 z"
           transform="matrix(15.333333,0,0,11.5,414.99999,878.8622)"
           fill="#1890d0"
           id="path14" />
      </g>
    </clipPath>
    <clipPath
       id="clipPath-220977298">
      <g
         transform="translate(0,-1004.3622)"
         id="g17">
        <path
           d="m -24 13 c 0 1.105 -0.672 2 -1.5 2 -0.828 0 -1.5 -0.895 -1.5 -2 0 -1.105 0.672 -2 1.5 -2 0.828 0 1.5 0.895 1.5 2 z"
           transform="matrix(15.333333,0,0,11.5,414.99999,878.8622)"
           fill="#1890d0"
           id="path19" />
      </g>
    </clipPath>
  </defs>
  <g
     id="g21">
    <path
       d="m 36.31 5 c 5.859 4.062 9.688 10.831 9.688 18.5 c 0 12.426 -10.07 22.5 -22.5 22.5 c -7.669 0 -14.438 -3.828 -18.5 -9.688 c 1.037 1.822 2.306 3.499 3.781 4.969 c 4.085 3.712 9.514 5.969 15.469 5.969 c 12.703 0 23 -10.298 23 -23 c 0 -5.954 -2.256 -11.384 -5.969 -15.469 c -1.469 -1.475 -3.147 -2.744 -4.969 -3.781 z m 4.969 3.781 c 3.854 4.113 6.219 9.637 6.219 15.719 c 0 12.703 -10.297 23 -23 23 c -6.081 0 -11.606 -2.364 -15.719 -6.219 c 4.16 4.144 9.883 6.719 16.219 6.719 c 12.703 0 23 -10.298 23 -23 c 0 -6.335 -2.575 -12.06 -6.719 -16.219 z"
       opacity="0.05"
       id="path23" />
    <path
       d="m 41.28 8.781 c 3.712 4.085 5.969 9.514 5.969 15.469 c 0 12.703 -10.297 23 -23 23 c -5.954 0 -11.384 -2.256 -15.469 -5.969 c 4.113 3.854 9.637 6.219 15.719 6.219 c 12.703 0 23 -10.298 23 -23 c 0 -6.081 -2.364 -11.606 -6.219 -15.719 z"
       opacity="0.1"
       id="path25" />
    <path
       d="m 31.25 2.375 c 8.615 3.154 14.75 11.417 14.75 21.13 c 0 12.426 -10.07 22.5 -22.5 22.5 c -9.708 0 -17.971 -6.135 -21.12 -14.75 a 23 23 0 0 0 44.875 -7 a 23 23 0 0 0 -16 -21.875 z"
       opacity="0.2"
       id="path27" />
  </g>
  <g
     id="g29">
    <path
       d="m 24 1 c 12.703 0 23 10.297 23 23 c 0 12.703 -10.297 23 -23 23 -12.703 0 -23 -10.297 -23 -23 0 -12.703 10.297 -23 23 -23 z"
       id="path31"
       fill-opacity="1"
       fill="url(#linearGradient3764)" />
  </g>
  <path
     d="M 37,18 37,32 25.000001,38 13,32 13,18 25.000001,12"
     id="path3999"
     inkscape:connector-curvature="0"
     style="fill:#000000;fill-opacity:1;fill-rule:nonzero;stroke:none;opacity:0.1"
     sodipodi:nodetypes="cccccc" />
  <g
     id="g33" />
  <path
     sodipodi:nodetypes="cccccc"
     style="fill:#bababa;fill-opacity:1;fill-rule:nonzero;stroke:none"
     inkscape:connector-curvature="0"
     id="path55"
     d="M 36,17 36,31 24.000001,37 12,31 12,17 24.000001,11" />
  <g
     id="g59">
    <path
       d="m 40.03 7.531 c 3.712 4.084 5.969 9.514 5.969 15.469 0 12.703 -10.297 23 -23 23 c -5.954 0 -11.384 -2.256 -15.469 -5.969 4.178 4.291 10.01 6.969 16.469 6.969 c 12.703 0 23 -10.298 23 -23 0 -6.462 -2.677 -12.291 -6.969 -16.469 z"
       opacity="0.1"
       id="path61" />
  </g>
  <path
     style="fill:#000000;fill-opacity:1;stroke:none"
     d="m 35,19 -4,2 0,6 4,2 z"
     id="path3845"
     inkscape:connector-curvature="0"
     sodipodi:nodetypes="ccccc" />
  <path
     style="fill:#000000;fill-opacity:1;stroke:none"
     d="M 34.296468,30.735454 30.588117,28.182171 25,31 l 0,4.4 z"
     id="path3865"
     inkscape:connector-curvature="0"
     sodipodi:nodetypes="ccccc" />
  <path
     sodipodi:nodetypes="ccccc"
     inkscape:connector-curvature="0"
     id="path3863"
     d="m 35,19 -4,2 0,6 4,2 z"
     style="fill:#000000;fill-opacity:1;stroke:none" />
  <path
     sodipodi:nodetypes="ccccc"
     inkscape:connector-curvature="0"
     id="path3878"
     d="M 34.296468,17.246717 30.588117,19.8 25,17 25,12.582171 z"
     style="fill:#000000;fill-opacity:1;stroke:none" />
  <path
     sodipodi:nodetypes="ccccc"
     inkscape:connector-curvature="0"
     id="path3888"
     d="m 13,19 4,2 0,6 -4,2 z"
     style="fill:#000000;fill-opacity:1;stroke:none" />
  <path
     sodipodi:nodetypes="ccccc"
     inkscape:connector-curvature="0"
     id="path3890"
     d="M 13.703532,30.735454 17.411883,28.182171 23,31 l 0,4.4 z"
     style="fill:#000877;fill-opacity:1;stroke:none" />
  <path
     style="fill:#000000;fill-opacity:1;stroke:none"
     d="m 13,19 4,2 0,6 -4,2 z"
     id="path3892"
     inkscape:connector-curvature="0"
     sodipodi:nodetypes="ccccc" />
  <path
     style="fill:#000000;fill-opacity:1;stroke:none"
     d="M 13.703532,17.246717 17.411883,19.8 23,17 23,12.582171 z"
     id="path3894"
     inkscape:connector-curvature="0"
     sodipodi:nodetypes="ccccc" />
  <path
     style="fill:#f9f9f9;fill-opacity:1;fill-rule:nonzero;stroke:none"
     d="M 20 15 C 18.343146 15 17 16.343146 17 18 C 17 18.645368 17.216042 19.229116 17.5625 19.71875 L 17.6875 19.65625 C 17.512105 19.278272 17.40625 18.853743 17.40625 18.40625 C 17.40625 16.749396 18.749396 15.40625 20.40625 15.40625 C 21.150487 15.40625 21.819406 15.67629 22.34375 16.125 C 21.793973 15.438625 20.947818 15 20 15 z "
     id="path3989" />
  <path
     sodipodi:type="arc"
     style="opacity:1;fill:#000000;fill-opacity:1;fill-rule:nonzero;stroke:none"
     id="path3902"
     sodipodi:cx="24"
     sodipodi:cy="24"
     sodipodi:rx="5"
     sodipodi:ry="5"
     d="m 29,24 a 5,5 0 1 1 -10,0 5,5 0 1 1 10,0 z" />
  <path
     style="fill:#000877;fill-opacity:1;fill-rule:nonzero;stroke:none;stroke-opacity:1"
     d="M 29.40625 28.78125 L 25 31 L 25 35.40625 L 30.78125 32.5 C 30.522795 31.169868 30.036814 29.933047 29.40625 28.78125 z "
     id="path3924" />
  <path
     style="opacity:1;fill:#000877;fill-opacity:1;fill-rule:nonzero;stroke:none"
     d="M 19.40625 22.0625 C 19.153236 22.660692 19 23.309644 19 24 C 19 26.761424 21.238576 29 24 29 C 25.701841 29 27.221941 28.142626 28.125 26.84375 C 26.01573 24.224783 22.931225 22.437664 19.40625 22.0625 z "
     id="path3926" />
  <path
     style="fill:#000877;fill-opacity:1;stroke:none"
     d="M 17 22.03125 C 15.590616 22.137579 14.248194 22.479959 13 23 L 13 29 L 17 27 L 17 22.03125 z "
     id="path3981" />
</svg>

<svg xmlns="http://www.w3.org/2000/svg" viewBox="0 0 48 48">
 <defs>
  <linearGradient id="linearGradient3764" x1="1" x2="47" gradientUnits="userSpaceOnUse" gradientTransform="matrix(0,-1,1,0,-1.5e-6,47.999998)">
   <stop style="stop-color:#e4e4e4;stop-opacity:1"/>
   <stop offset="1" style="stop-color:#eee;stop-opacity:1"/>
  </linearGradient>
 </defs>
 <g>
  <path d="m 36.31 5 c 5.859 4.062 9.688 10.831 9.688 18.5 c 0 12.426 -10.07 22.5 -22.5 22.5 c -7.669 0 -14.438 -3.828 -18.5 -9.688 c 1.037 1.822 2.306 3.499 3.781 4.969 c 4.085 3.712 9.514 5.969 15.469 5.969 c 12.703 0 23 -10.298 23 -23 c 0 -5.954 -2.256 -11.384 -5.969 -15.469 c -1.469 -1.475 -3.147 -2.744 -4.969 -3.781 z m 4.969 3.781 c 3.854 4.113 6.219 9.637 6.219 15.719 c 0 12.703 -10.297 23 -23 23 c -6.081 0 -11.606 -2.364 -15.719 -6.219 c 4.16 4.144 9.883 6.719 16.219 6.719 c 12.703 0 23 -10.298 23 -23 c 0 -6.335 -2.575 -12.06 -6.719 -16.219 z" style="opacity:0.05"/>
  <path d="m 41.28 8.781 c 3.712 4.085 5.969 9.514 5.969 15.469 c 0 12.703 -10.297 23 -23 23 c -5.954 0 -11.384 -2.256 -15.469 -5.969 c 4.113 3.854 9.637 6.219 15.719 6.219 c 12.703 0 23 -10.298 23 -23 c 0 -6.081 -2.364 -11.606 -6.219 -15.719 z" style="opacity:0.1"/>
  <path d="m 31.25 2.375 c 8.615 3.154 14.75 11.417 14.75 21.13 c 0 12.426 -10.07 22.5 -22.5 22.5 c -9.708 0 -17.971 -6.135 -21.12 -14.75 a 23 23 0 0 0 44.875 -7 a 23 23 0 0 0 -16 -21.875 z" style="opacity:0.2"/>
 </g>
 <g>
  <path d="m 24 1 c 12.703 0 23 10.297 23 23 c 0 12.703 -10.297 23 -23 23 -12.703 0 -23 -10.297 -23 -23 0 -12.703 10.297 -23 23 -23 z" style="fill:url(#linearGradient3764);fill-opacity:1"/>
 </g>
 <path d="m 37 18 0 14 -12 6 -12 -6 0 -14 12 -6" style="fill:#000;opacity:0.1;fill-opacity:1;stroke:none;fill-rule:nonzero"/>
 <path d="m 36 17 0 14 -12 6 -12 -6 0 -14 12 -6" style="fill:#bababa;fill-opacity:1;stroke:none;fill-rule:nonzero"/>
 <g>
  <path d="m 40.03 7.531 c 3.712 4.084 5.969 9.514 5.969 15.469 0 12.703 -10.297 23 -23 23 c -5.954 0 -11.384 -2.256 -15.469 -5.969 4.178 4.291 10.01 6.969 16.469 6.969 c 12.703 0 23 -10.298 23 -23 0 -6.462 -2.677 -12.291 -6.969 -16.469 z" style="opacity:0.1"/>
 </g>
 <path d="m 35 19 -4 2 0 6 4 2 z" style="fill:#000;fill-opacity:1;stroke:none"/>
 <path d="m 34.3 30.735 -3.708 -2.553 -5.588 2.818 l 0 4.4 z" style="fill:#000;fill-opacity:1;stroke:none"/>
 <path d="m 35 19 -4 2 0 6 4 2 z" style="fill:#000;fill-opacity:1;stroke:none"/>
 <path d="m 34.3 17.247 -3.708 2.553 -5.588 -2.8 0 -4.418 z" style="fill:#000;fill-opacity:1;stroke:none"/>
 <path d="m 13 19 4 2 0 6 -4 2 z" style="fill:#000;fill-opacity:1;stroke:none"/>
 <path d="m 13.704 30.735 3.708 -2.553 5.588 2.818 l 0 4.4 z" style="fill:#000877;fill-opacity:1;stroke:none"/>
 <path d="m 13 19 4 2 0 6 -4 2 z" style="fill:#000;fill-opacity:1;stroke:none"/>
 <path d="m 13.704 17.247 3.708 2.553 5.588 -2.8 0 -4.418 z" style="fill:#000;fill-opacity:1;stroke:none"/>
 <path d="m 20 15 c -1.657 0 -3 1.343 -3 3 c 0 0.645 0.216 1.229 0.563 1.719 l 0.125 -0.063 c -0.175 -0.378 -0.281 -0.803 -0.281 -1.25 c 0 -1.657 1.343 -3 3 -3 c 0.744 0 1.413 0.27 1.938 0.719 c -0.55 -0.686 -1.396 -1.125 -2.344 -1.125 z" style="fill:#f9f9f9;fill-opacity:1;stroke:none;fill-rule:nonzero"/>
 <path d="m 29 24 a 5 5 0 1 1 -10 0 5 5 0 1 1 10 0 z" style="fill:#000;opacity:1;fill-opacity:1;stroke:none;fill-rule:nonzero"/>
 <path d="m 29.406 28.781 l -4.406 2.219 l 0 4.406 l 5.781 -2.906 c -0.258 -1.33 -0.744 -2.567 -1.375 -3.719 z" style="fill:#000877;fill-opacity:1;stroke:none;fill-rule:nonzero"/>
 <path d="m 19.406 22.06 c -0.253 0.598 -0.406 1.247 -0.406 1.938 c 0 2.761 2.239 5 5 5 c 1.702 0 3.222 -0.857 4.125 -2.156 c -2.109 -2.619 -5.194 -4.406 -8.719 -4.781 z" style="fill:#000877;opacity:1;fill-opacity:1;stroke:none;fill-rule:nonzero"/>
 <path d="m 17 22.03 c -1.409 0.106 -2.752 0.449 -4 0.969 l 0 6 l 4 -2 l 0 -4.969 z" style="fill:#000877;fill-opacity:1;stroke:none"/>
</svg>
